X: 1
T: Bigg Market Lasses
M: 4/4
L: 1/8
R: reel
K: Emin
GF|:E2B_B =BEEF|EBB_B =B2AF|D2FE FDDE|DFFA ABAF|
E2B_B =BEEF|Eeefg2ef|gefd edBA|Bee^d e4:|
|:Bee/2^d/2e Aee/2d/2e|Geef fgfe|Add/2^c/2d Gdd/2c/2d|Fdde efed|
Bee/2^d/2e Aee/2d/2e|Geef fgef|gefd edBA|Bee^d e4:|
